src/pos-icons/code-less-than.svg

<svg height="24" viewBox="0 0 24 24" width="24" xmlns="http://www.w3.org/2000/svg"><path d="m13.59 7.41-4.59 4.59 4.59 4.6 1.41-1.42-3.18-3.18 3.18-3.18m4-5.82c1.11 0 2 .9 2 2v14a2 2 0 0 1 -2 2h-14a2 2 0 0 1 -2-2v-14a2 2 0 0 1 2-2z"/></svg>

<?xml version="1.0" encoding="UTF-8"?><!DOCTYPE svg PUBLIC "-//W3C//DTD SVG 1.1//EN" "http://www.w3.org/Graphics/SVG/1.1/DTD/svg11.dtd"><svg xmlns="http://www.w3.org/2000/svg" xmlns:xlink="http://www.w3.org/1999/xlink" version="1.1" id="mdi-code-less-than" width="24" height="24" viewBox="0 0 24 24"><path d="M13.59,7.41L9,12L13.59,16.6L15,15.18L11.82,12L15,8.82M19,3C20.11,3 21,3.9 21,5V19A2,2 0 0,1 19,21H5A2,2 0 0,1 3,19V5A2,2 0 0,1 5,3H19Z" /></svg>
